packages/components/bolt-icons/src/svgs/pega/pega-disability.svg

<svg viewBox="0 0 32 32" xmlns="http://www.w3.org/2000/svg"><path fill="#fff" d="m24.12 25.05a11.39 11.39 0 0 1 -20.79-6.51 11.55 11.55 0 0 1 5.6-9.87 1 1 0 1 0 -1.02-1.67 13.44 13.44 0 1 0 17.86 19.19 1 1 0 0 0 -.26-1.39 1 1 0 0 0 -1.39.25z"/><path fill="#fff" d="m30.37 21.44a1 1 0 0 0 -1.41 0l-1.06 1.08-4.66-4.68a1 1 0 0 0 -.71-.3h-6.8v-4.81h6.47a1 1 0 0 0 0-2h-6.47v-2.33a4.25 4.25 0 1 0 -2 0v10.14a1 1 0 0 0 1 1h7.38l5.08 5.1a1 1 0 0 0 1.41 0l1.78-1.78a1 1 0 0 0 -.01-1.42zm-17.89-17.17a2.26 2.26 0 1 1 2.25 2.26 2.26 2.26 0 0 1 -2.25-2.26z"/></svg>

<svg id="icon-disability" data-name="disability" xmlns="http://www.w3.org/2000/svg" viewBox="0 0 32 32"><path d="M24.12,25.05A11.39,11.39,0,0,1,3.33,18.54a11.55,11.55,0,0,1,5.6-9.87A1,1,0,1,0,7.91,7,13.44,13.44,0,1,0,25.77,26.19a1,1,0,0,0-.26-1.39A1,1,0,0,0,24.12,25.05Z"/><path d="M30.37,21.44a1,1,0,0,0-1.41,0L27.9,22.52l-4.66-4.68a1,1,0,0,0-.71-.3h-6.8V12.73H22.2a1,1,0,0,0,0-2H15.73V8.4a4.25,4.25,0,1,0-2,0V18.54a1,1,0,0,0,1,1h7.38l5.08,5.1a1,1,0,0,0,1.41,0l1.78-1.78A1,1,0,0,0,30.37,21.44ZM12.48,4.27a2.26,2.26,0,1,1,2.25,2.26A2.26,2.26,0,0,1,12.48,4.27Z"/></svg>
